src/images/avatars/avatar-7.svg

<svg fill="none" height="83" viewBox="0 0 50 83" width="50" xmlns="http://www.w3.org/2000/svg"><path d="m44.8998 72.1478c0-4.4-3.6-8-8-8h-24.6c-4.4 0-8 3.6-8 8v1.3c5.3 4.9 12.4 7.9 20.2 7.9 7.9 0 15-3 20.3-8v-1.2z" fill="#fff" stroke="#4d4d4d" stroke-linejoin="round" stroke-miterlimit="10" stroke-width="2"/><path d="m28.3 62.1478v-14.5h-7.6v14.5c0 1.1-.9 2-2 2h-1.7c0 3.4 3.3 6.1 7.4 6.1s7.4-2.7 7.4-6.1h-1.6c-1 0-1.9-.9-1.9-2z" fill="#ebc8ba" stroke="#4d4d4d" stroke-linejoin="round" stroke-miterlimit="10" stroke-width="2"/><path d="m31.4002 66.0478c-6.9.5-10.7-2.8001-10.6-3.6001.1-1.5-.1-.6-.1-.6l7.6.2s.4 2 1.9 2c-.1.1 2.9-1.4 1.2 2.0001z" fill="#b0968b" opacity=".5"/><g stroke="#4d4d4d" stroke-linejoin="round" stroke-miterlimit="10" stroke-width="2"><path d="m28.3 62.1478v-14.5h-7.6v14.5c0 1.1-.9 2-2 2h-1.7c0 3.4 3.3 6.1 7.4 6.1s7.4-2.7 7.4-6.1h-1.6c-1 0-1.9-.9-1.9-2z"/><path d="m5.7999 37.9477c2.15391 0 3.90001-1.7461 3.90001-3.9s-1.7461-3.8999-3.90001-3.8999-3.9 1.746-3.9 3.8999 1.74609 3.9 3.9 3.9z" fill="#ebc8ba"/><path d="m43.2999 37.9477c2.1539 0 3.9-1.7461 3.9-3.9s-1.7461-3.8999-3.9-3.8999-3.9 1.746-3.9 3.8999 1.7461 3.9 3.9 3.9z" fill="#ebc8ba"/><path d="m5.7998 20.0477v18.2c0 10.2 8 18.9 18.2 19.1 10.6.3 19.2-8.2 19.2-18.7v-18.6z" fill="#ebc8ba"/><path d="m5.7998 30.1478 2.70001 2.8h32.29999l2.5-2.8"/><path d="m37.1998 36.9478h-6.4c-1.7 0-3-1.3-3-3v-2.1c0-1.7 1.3-3 3-3h6.4c1.7 0 3 1.3 3 3v2.1c0 1.6-1.3 3-3 3z" fill="#f7e9e3"/><path d="m18.1998 36.9478h-6.4c-1.7 0-3-1.3-3-3v-2.1c0-1.7 1.3-3 3-3h6.4c1.7 0 3 1.3 3 3v2.1c0 1.6-1.3 3-3 3z" fill="#f7e9e3"/></g><path d="m15.5996 34.4478c.8284 0 1.5-.6716 1.5-1.5 0-.8285-.6716-1.5-1.5-1.5s-1.5.6715-1.5 1.5c0 .8284.6716 1.5 1.5 1.5z" fill="#4d4d4d"/><path d="m33.5 34.4478c.8284 0 1.5-.6716 1.5-1.5 0-.8285-.6716-1.5-1.5-1.5s-1.5.6715-1.5 1.5c0 .8284.6716 1.5 1.5 1.5z" fill="#4d4d4d"/><path d="m23 38.6478v1.7c0 .7.6 1.3 1.3 1.3h1.6" stroke="#4d4d4d" stroke-linecap="round" stroke-linejoin="round" stroke-miterlimit="10" stroke-width="2"/><path d="m10.6001 75.2477v2.5" stroke="#4d4d4d" stroke-linecap="round" stroke-linejoin="round" stroke-miterlimit="10" stroke-width="2"/><path d="m38.6001 75.2477v2.5" stroke="#4d4d4d" stroke-linecap="round" stroke-linejoin="round" stroke-miterlimit="10" stroke-width="2"/><path d="m48.1 22.4477c0-1-.3-1.8-.9-2.5.3-.7.5-1.4.5-2.2 0-1.1-.4-2.1-.9-2.9.4-.7-.4-3.1-1.9-4-.2-1.99995-2.2-3.39995-4.1-3.99995-.2-3.3-4.2-5.9-7.2-3.4-1.3-2.7-5.2-3.1-6.8-1.1-1.1-1.9-4.9-1.9-6.6.7-.9-.7-1.9-1.1-3.1-1.1-1.8 0-3.4 1-4.3 2.4-.5-.2-1-.2-1.5-.2-2.80001 0-5.00001 2.2-5.00001 5v.5c-2.2-.2-3.49999 2.49995-3 3.69995-1.39999.1-2.29999 1.6-2.29999 3.2 0 1.2.4 2.3 1.1 3.2-.7.7-1.1 1.7-1.1 2.8s.4 2 1.1 2.8c-.7.7-1.1 1.7-1.1 2.8 0 2.3 1.8 4.1 4.1 4.1.2 0 .4 0 .6-.1v-10.7h.3c1.1 0 2.2-.4 3-1 .7 1.9 2.5 3.3 4.7 3.3 1.7 0 3.3-.9 4.2-2.2.9.7 2 1.2 3.2 1.2 1.8 0 3.4-1 4.3-2.4.9 1.3 2.4 2.2 4.2 2.2 1.9 0 3.5-1 4.3-2.5.9 1 2.2 1.7 3.7 1.7.6 0 1.2-.1 1.7-.3.9.8 2.1 1.3 3.4 1.3h.6v9.4c.2 0 .4.1.6.1 2.3 0 4.1-1.8 4.1-4.1 0-1.1-.4-2-1.1-2.8.7-.9 1.2-1.9 1.2-2.9z" fill="#717e7e" stroke="#4d4d4d" stroke-linejoin="round" stroke-miterlimit="10" stroke-width="2"/><path d="m45.3001 41.9478c1.6-1.4.2-4.8-2.2-4.8-2.5 0-3.4 2.8-2.4 4.3-2 .1-2.4 1.6-1.6 2.8-1.5-.4-2.4 1.2-2 2.1-1.7-.6-2.9.8-2.9 2.5-.6-1.6-2.2-2.2-3.1-.9.1-2.6-3.7-3.6-4.1-2-.5-1.7-3.5-2-4.2-.1-.6-1.6-3.8-1.4-4.2 1.6 0 0-.1-1 0 0-.5-.2-2.8-.5-3.6 1.8.1-1.4-1.5-2.4-2.5-1.8 0-1.2-.8-2.1-2-2.3.4-2.1-.3-3.6-2.1-3.4.9-2.1-.8-3.2-2.5-3.2-1.8 0-3 3.5-1.1 4.5-1.8 1-1.7 4-.1 4.4-1 1.5-.1 4 1.9 3.6-1 1.8.3 4 2 3.7-1 2 .9 4.9 2.9 3.6-.3 2.7 2.9 4 4.4 2.5-.1 2.1 3.1 3 4.4 1.5.8 2.5 5 2.5 5.8.2 1.8 2.2 5.9.8 6-1.4 1.2 1 4 1.3 4.6-1.5 2.4.7 3.7-1.7 3.1-4.5 3 .4 3.4-1.2 2.6-3.7 2.1.7 3.2-2.1 1.8-4.5 2.1.3 3-3.8 1.1-5z" fill="#717e7e" stroke="#4d4d4d" stroke-linejoin="round" stroke-miterlimit="10" stroke-width="2"/><path d="m22.6001 51.3478c1.2.4 2.5.4 3.7 0" stroke="#4d4d4d" stroke-linecap="round" stroke-linejoin="round" stroke-miterlimit="10" stroke-width="2"/></svg>

<svg width="50" height="83" viewBox="0 0 50 83" fill="none" xmlns="http://www.w3.org/2000/svg">
<path d="M44.8998 72.1478C44.8998 67.7478 41.2998 64.1478 36.8998 64.1478H12.2998C7.8998 64.1478 4.2998 67.7478 4.2998 72.1478V73.4478C9.5998 78.3478 16.6998 81.3478 24.4998 81.3478C32.3998 81.3478 39.4998 78.3478 44.7998 73.3478V72.1478H44.8998Z" fill="white" stroke="#4D4D4D" stroke-width="2" stroke-miterlimit="10" stroke-linejoin="round"/>
<path d="M28.3 62.1478V47.6478H20.7V62.1478C20.7 63.2478 19.8 64.1478 18.7 64.1478H17C17 67.5478 20.3 70.2478 24.4 70.2478C28.5 70.2478 31.8 67.5478 31.8 64.1478H30.2C29.2 64.1478 28.3 63.2478 28.3 62.1478Z" fill="#EBC8BA" stroke="#4D4D4D" stroke-width="2" stroke-miterlimit="10" stroke-linejoin="round"/>
<path opacity="0.5" d="M31.4002 66.0478C24.5002 66.5478 20.7002 63.2477 20.8002 62.4477C20.9002 60.9477 20.7002 61.8477 20.7002 61.8477L28.3002 62.0477C28.3002 62.0477 28.7002 64.0477 30.2002 64.0477C30.1002 64.1477 33.1002 62.6477 31.4002 66.0478Z" fill="#B0968B"/>
<path d="M28.3 62.1478V47.6478H20.7V62.1478C20.7 63.2478 19.8 64.1478 18.7 64.1478H17C17 67.5478 20.3 70.2478 24.4 70.2478C28.5 70.2478 31.8 67.5478 31.8 64.1478H30.2C29.2 64.1478 28.3 63.2478 28.3 62.1478Z" stroke="#4D4D4D" stroke-width="2" stroke-miterlimit="10" stroke-linejoin="round"/>
<path d="M5.7999 37.9477C7.95381 37.9477 9.69991 36.2016 9.69991 34.0477C9.69991 31.8938 7.95381 30.1478 5.7999 30.1478C3.64599 30.1478 1.8999 31.8938 1.8999 34.0477C1.8999 36.2016 3.64599 37.9477 5.7999 37.9477Z" fill="#EBC8BA" stroke="#4D4D4D" stroke-width="2" stroke-miterlimit="10" stroke-linejoin="round"/>
<path d="M43.2999 37.9477C45.4538 37.9477 47.1999 36.2016 47.1999 34.0477C47.1999 31.8938 45.4538 30.1478 43.2999 30.1478C41.146 30.1478 39.3999 31.8938 39.3999 34.0477C39.3999 36.2016 41.146 37.9477 43.2999 37.9477Z" fill="#EBC8BA" stroke="#4D4D4D" stroke-width="2" stroke-miterlimit="10" stroke-linejoin="round"/>
<path d="M5.7998 20.0477V38.2477C5.7998 48.4477 13.7998 57.1477 23.9998 57.3477C34.5998 57.6477 43.1998 49.1477 43.1998 38.6477V20.0477H5.7998Z" fill="#EBC8BA" stroke="#4D4D4D" stroke-width="2" stroke-miterlimit="10" stroke-linejoin="round"/>
<path d="M5.7998 30.1478L8.49981 32.9478H40.7998L43.2998 30.1478" stroke="#4D4D4D" stroke-width="2" stroke-miterlimit="10" stroke-linejoin="round"/>
<path d="M37.1998 36.9478H30.7998C29.0998 36.9478 27.7998 35.6478 27.7998 33.9478V31.8478C27.7998 30.1478 29.0998 28.8478 30.7998 28.8478H37.1998C38.8998 28.8478 40.1998 30.1478 40.1998 31.8478V33.9478C40.1998 35.5478 38.8998 36.9478 37.1998 36.9478Z" fill="#F7E9E3" stroke="#4D4D4D" stroke-width="2" stroke-miterlimit="10" stroke-linejoin="round"/>
<path d="M18.1998 36.9478H11.7998C10.0998 36.9478 8.7998 35.6478 8.7998 33.9478V31.8478C8.7998 30.1478 10.0998 28.8478 11.7998 28.8478H18.1998C19.8998 28.8478 21.1998 30.1478 21.1998 31.8478V33.9478C21.1998 35.5478 19.8998 36.9478 18.1998 36.9478Z" fill="#F7E9E3" stroke="#4D4D4D" stroke-width="2" stroke-miterlimit="10" stroke-linejoin="round"/>
<path d="M15.5996 34.4478C16.428 34.4478 17.0996 33.7762 17.0996 32.9478C17.0996 32.1193 16.428 31.4478 15.5996 31.4478C14.7712 31.4478 14.0996 32.1193 14.0996 32.9478C14.0996 33.7762 14.7712 34.4478 15.5996 34.4478Z" fill="#4D4D4D"/>
<path d="M33.5 34.4478C34.3284 34.4478 35 33.7762 35 32.9478C35 32.1193 34.3284 31.4478 33.5 31.4478C32.6716 31.4478 32 32.1193 32 32.9478C32 33.7762 32.6716 34.4478 33.5 34.4478Z" fill="#4D4D4D"/>
<path d="M23 38.6478V40.3478C23 41.0478 23.6 41.6478 24.3 41.6478H25.9" stroke="#4D4D4D" stroke-width="2" stroke-miterlimit="10" stroke-linecap="round" stroke-linejoin="round"/>
<path d="M10.6001 75.2477V77.7477" stroke="#4D4D4D" stroke-width="2" stroke-miterlimit="10" stroke-linecap="round" stroke-linejoin="round"/>
<path d="M38.6001 75.2477V77.7477" stroke="#4D4D4D" stroke-width="2" stroke-miterlimit="10" stroke-linecap="round" stroke-linejoin="round"/>
<path d="M48.1 22.4477C48.1 21.4477 47.8 20.6477 47.2 19.9477C47.5 19.2477 47.7 18.5477 47.7 17.7477C47.7 16.6477 47.3 15.6477 46.8 14.8477C47.2 14.1477 46.4 11.7477 44.9 10.8477C44.7 8.84775 42.7 7.44775 40.8 6.84775C40.6 3.54775 36.6 0.94775 33.6 3.44775C32.3 0.74775 28.4 0.34775 26.8 2.34775C25.7 0.44775 21.9 0.44775 20.2 3.04775C19.3 2.34775 18.3 1.94775 17.1 1.94775C15.3 1.94775 13.7 2.94775 12.8 4.34775C12.3 4.14775 11.8 4.14775 11.3 4.14775C8.49999 4.14775 6.29999 6.34775 6.29999 9.14775C6.29999 9.34775 6.29999 9.44775 6.29999 9.64775C4.09999 9.44775 2.8 12.1477 3.29999 13.3477C1.9 13.4477 1 14.9477 1 16.5477C1 17.7477 1.4 18.8477 2.1 19.7477C1.4 20.4477 1 21.4477 1 22.5477C1 23.6477 1.4 24.5477 2.1 25.3477C1.4 26.0477 1 27.0477 1 28.1477C1 30.4477 2.8 32.2477 5.1 32.2477C5.3 32.2477 5.5 32.2477 5.7 32.1477V21.4477C5.8 21.4477 5.9 21.4477 6 21.4477C7.1 21.4477 8.2 21.0477 9 20.4477C9.7 22.3477 11.5 23.7477 13.7 23.7477C15.4 23.7477 17 22.8477 17.9 21.5477C18.8 22.2477 19.9 22.7477 21.1 22.7477C22.9 22.7477 24.5 21.7477 25.4 20.3477C26.3 21.6477 27.8 22.5477 29.6 22.5477C31.5 22.5477 33.1 21.5477 33.9 20.0477C34.8 21.0477 36.1 21.7477 37.6 21.7477C38.2 21.7477 38.8 21.6477 39.3 21.4477C40.2 22.2477 41.4 22.7477 42.7 22.7477C42.9 22.7477 43.1 22.7477 43.3 22.7477V32.1477C43.5 32.1477 43.7 32.2477 43.9 32.2477C46.2 32.2477 48 30.4477 48 28.1477C48 27.0477 47.6 26.1477 46.9 25.3477C47.6 24.4477 48.1 23.4477 48.1 22.4477Z" fill="#717E7E" stroke="#4D4D4D" stroke-width="2" stroke-miterlimit="10" stroke-linejoin="round"/>
<path d="M45.3001 41.9478C46.9001 40.5478 45.5001 37.1478 43.1001 37.1478C40.6001 37.1478 39.7001 39.9478 40.7001 41.4478C38.7001 41.5478 38.3001 43.0478 39.1001 44.2478C37.6001 43.8478 36.7001 45.4478 37.1001 46.3478C35.4001 45.7478 34.2001 47.1478 34.2001 48.8478C33.6001 47.2478 32.0001 46.6478 31.1001 47.9478C31.2001 45.3478 27.4001 44.3478 27.0001 45.9478C26.5001 44.2478 23.5001 43.9478 22.8001 45.8478C22.2001 44.2478 19.0001 44.4478 18.6001 47.4478C18.6001 47.4478 18.5001 46.4478 18.6001 47.4478C18.1001 47.2478 15.8001 46.9478 15.0001 49.2478C15.1001 47.8478 13.5001 46.8478 12.5001 47.4478C12.5001 46.2478 11.7001 45.3478 10.5001 45.1478C10.9001 43.0478 10.2001 41.5478 8.4001 41.7478C9.3001 39.6478 7.6001 38.5478 5.9001 38.5478C4.1001 38.5478 2.9001 42.0478 4.8001 43.0478C3.0001 44.0478 3.1001 47.0478 4.7001 47.4478C3.7001 48.9478 4.6001 51.4478 6.6001 51.0478C5.6001 52.8478 6.9001 55.0478 8.6001 54.7478C7.6001 56.7478 9.5001 59.6478 11.5001 58.3478C11.2001 61.0478 14.4001 62.3478 15.9001 60.8478C15.8001 62.9478 19.0001 63.8478 20.3001 62.3478C21.1001 64.8478 25.3001 64.8478 26.1001 62.5478C27.9001 64.7478 32.0001 63.3478 32.1001 61.1478C33.3001 62.1478 36.1001 62.4478 36.7001 59.6478C39.1001 60.3478 40.4001 57.9478 39.8001 55.1478C42.8001 55.5478 43.2001 53.9478 42.4001 51.4478C44.5001 52.1478 45.6001 49.3478 44.2001 46.9478C46.3001 47.2478 47.2001 43.1478 45.3001 41.9478Z" fill="#717E7E" stroke="#4D4D4D" stroke-width="2" stroke-miterlimit="10" stroke-linejoin="round"/>
<path d="M22.6001 51.3478C23.8001 51.7478 25.1001 51.7478 26.3001 51.3478" stroke="#4D4D4D" stroke-width="2" stroke-miterlimit="10" stroke-linecap="round" stroke-linejoin="round"/>
</svg>
